tools/download-figma-icons/icons/action/camera.svg

<svg width="24" height="24" viewBox="0 0 24 24" fill="none" xmlns="http://www.w3.org/2000/svg">
<path fill-rule="evenodd" clip-rule="evenodd" d="M2.25 7.125C2.25 6.91875 2.418 6.75 2.625 6.75H7.5C7.926 6.75 8.31525 6.50925 8.5065 6.12825L9.69525 3.75H14.3048L15.4935 6.12825C15.6848 6.50925 16.074 6.75 16.5 6.75H21.375C21.582 6.75 21.75 6.91875 21.75 7.125V19.125C21.75 19.3312 21.582 19.5 21.375 19.5H2.625C2.418 19.5 2.25 19.3312 2.25 19.125V7.125ZM2.625 21.75H21.375C22.8225 21.75 24 20.5725 24 19.125V7.125C24 5.6775 22.8225 4.5 21.375 4.5H17.1952L16.0065 2.12175C15.8152 1.74075 15.426 1.5 15 1.5H9C8.574 1.5 8.18475 1.74075 7.9935 2.12175L6.80475 4.5H2.625C1.1775 4.5 0 5.6775 0 7.125V19.125C0 20.5725 1.1775 21.75 2.625 21.75ZM9 12.75C9 11.0955 10.3455 9.75 12 9.75C13.6545 9.75 15 11.0955 15 12.75C15 14.4045 13.6545 15.75 12 15.75C10.3455 15.75 9 14.4045 9 12.75ZM6.75 12.75C6.75 15.6442 9.105 18 12 18C14.895 18 17.25 15.6442 17.25 12.75C17.25 9.85575 14.895 7.5 12 7.5C9.105 7.5 6.75 9.85575 6.75 12.75Z" fill="black"/>
</svg>

<svg width="24" height="24" viewBox="0 0 24 24" fill="none" xmlns="http://www.w3.org/2000/svg"><path fill-rule="evenodd" clip-rule="evenodd" d="M2.25 7.125c0-.206.168-.375.375-.375H7.5c.426 0 .815-.24 1.007-.622L9.695 3.75h4.61l1.188 2.378c.192.381.581.622 1.007.622h4.875c.207 0 .375.169.375.375v12a.376.376 0 0 1-.375.375H2.625a.376.376 0 0 1-.375-.375v-12Zm.375 14.625h18.75A2.628 2.628 0 0 0 24 19.125v-12A2.628 2.628 0 0 0 21.375 4.5h-4.18l-1.189-2.378A1.126 1.126 0 0 0 15 1.5H9c-.426 0-.815.24-1.006.622L6.803 4.5H2.626A2.628 2.628 0 0 0 0 7.125v12a2.628 2.628 0 0 0 2.625 2.625Zm6.375-9c0-1.655 1.345-3 3-3s3 1.345 3 3-1.345 3-3 3-3-1.345-3-3Zm-2.25 0A5.256 5.256 0 0 0 12 18a5.256 5.256 0 0 0 5.25-5.25A5.256 5.256 0 0 0 12 7.5a5.256 5.256 0 0 0-5.25 5.25Z" fill="currentColor"/></svg>
